X:190
T:Dusty Miller
M:3/2
L:1/8
B:Thompson's Compleat Collection of 200 Favourite Country Dances, vol. 2 (London, 1765)
Z:Transcribed and edited by Flynn Titford-Mock, 2007
Z:abc's:AK/Fiddler's Companion
K:G
B3c d2 B2 A2G2 | D2A2A2c2B2A2 | B3cd2B2A2G2 | D2G2G2B2A2G2 :|
|: B3cd2e2f2g2 | a2A2A2c2B2A2 | B3cd2e2 "tr"f3 (e/f/) | g3a g2 B2A2G2 :|

